src/pos-icons/alpha-k.svg

<svg height="24" viewBox="0 0 24 24" width="24" xmlns="http://www.w3.org/2000/svg"><path d="m9 7v10h2v-3.33l2 3.33h2l-3-5 3-5h-2l-2 3.33v-3.33z"/></svg>

<?xml version="1.0" encoding="UTF-8"?><!DOCTYPE svg PUBLIC "-//W3C//DTD SVG 1.1//EN" "http://www.w3.org/Graphics/SVG/1.1/DTD/svg11.dtd"><svg xmlns="http://www.w3.org/2000/svg" xmlns:xlink="http://www.w3.org/1999/xlink" version="1.1" id="mdi-alpha-k" width="24" height="24" viewBox="0 0 24 24"><path d="M9,7V17H11V13.67L13,17H15L12,12L15,7H13L11,10.33V7H9Z" /></svg>
